src/assets/flags/zm.svg

<?xml version="1.0" encoding="UTF-8"?>
<svg xmlns="http://www.w3.org/2000/svg" xmlns:xlink="http://www.w3.org/1999/xlink" width="25px" height="px" viewBox="0 0 25 19" version="1.1">
<g id="surface1">
<rect x="0" y="0" width="25" height="19" style="fill:rgb(9.803922%,54.11765%,0%);fill-opacity:1;stroke:none;"/>
<path style=" stroke:none;fill-rule:evenodd;fill:rgb(93.725491%,49.019608%,0%);fill-opacity:1;" d="M 21.699219 6.828125 L 25 6.828125 L 25 19 L 21.699219 19 Z M 21.699219 6.828125 "/>
<path style=" stroke:none;fill-rule:evenodd;fill:rgb(0%,0%,0.392157%);fill-opacity:1;" d="M 18.40625 6.820312 L 21.699219 6.820312 L 21.699219 18.992188 L 18.40625 18.992188 Z M 18.40625 6.820312 "/>
<path style=" stroke:none;fill-rule:evenodd;fill:rgb(87.058824%,12.54902%,6.27451%);fill-opacity:1;" d="M 15.039062 6.828125 L 18.40625 6.828125 L 18.40625 19 L 15.035156 19 Z M 15.039062 6.828125 "/>
<path style="fill-rule:evenodd;fill:rgb(93.725491%,49.019608%,0%);fill-opacity:1;stroke-width:1;stroke-linecap:butt;stroke-linejoin:round;stroke:rgb(0%,0%,0%);stroke-opacity:1;stroke-miterlimit:4;" d="M 451.626667 65.578947 C 451.626667 65.578947 485.546667 51.052632 488.746667 48.105263 C 490.346667 49.894737 475.2 68.105263 445.866667 74.842105 C 472.533333 68.631579 495.146667 48.842105 499.946667 49.368421 C 501.226667 49.684211 500.906667 68.736842 439.893333 85.157895 C 482.133333 74.210526 506.56 53.789474 506.346667 56 C 506.56 56.526316 502.08 72 465.173333 84.105263 C 475.52 81.684211 503.466667 64.736842 503.253333 68 C 504.106667 69.263158 476.16 105.157895 425.6 93.473684 C 466.026667 104 492.053333 78.736842 495.786667 79.157895 C 496.64 79.263158 488.426667 101.157895 437.546667 102.631579 C 461.866667 100.105263 454.933333 102.526316 454.933333 102.526316 C 454.933333 102.526316 440.64 113.684211 423.253333 106.105263 C 436.8 109.789474 438.293333 110 438.613333 111.052632 C 437.653333 112.736842 426.56 114.947368 415.68 109.052632 C 424.426667 112.736842 432.213333 113.263158 432.32 114.631579 C 432.213333 114.947368 426.666667 118.210526 421.653333 115.894737 C 416.746667 113.578947 371.413333 85.789474 371.413333 85.789474 L 448.853333 64.526316 L 451.626667 65.473684 Z M 360.64 141.157895 C 353.813333 141.157895 353.6 147.157895 353.6 147.157895 C 353.6 147.157895 353.066667 147.684211 353.386667 150.631579 L 355.093333 148 C 355.946667 148.105263 359.04 149.052632 363.946667 145.157895 C 359.36 149.894737 362.133333 151.578947 362.133333 151.578947 C 362.133333 151.578947 361.066667 155.263158 364.48 156 C 363.52 154.526316 364.053333 153.157895 364.053333 153.157895 C 364.053333 153.157895 368.853333 152.736842 368.64 146.947368 C 368.746667 152.210526 371.626667 153.473684 371.626667 153.473684 C 371.626667 153.473684 371.626667 156.421053 374.72 156.736842 C 373.12 155.157895 373.44 152.947368 373.44 152.947368 C 373.44 152.947368 377.386667 149.894737 374.08 144.947368 C 376.106667 143.684211 377.813333 140.421053 377.813333 140.421053 C 377.813333 140.421053 375.04 139.157895 373.653333 138.210526 C 373.12 136.947368 373.653333 129.684211 373.653333 129.684211 L 371.946667 120.421053 L 367.146667 134.947368 C 367.253333 132.947368 367.36 141.157895 360.64 141.157895 Z M 360.64 141.157895 " transform="matrix(0.0366211,0,0,0.0371094,6.25,0)"/>
<path style="fill-rule:evenodd;fill:rgb(93.725491%,49.019608%,0%);fill-opacity:1;stroke-width:1;stroke-linecap:butt;stroke-linejoin:round;stroke:rgb(0%,0%,0%);stroke-opacity:1;stroke-miterlimit:4;" d="M 394.24 120.315789 C 394.453333 120.421053 399.253333 125.894737 404.053333 125.578947 C 405.866667 124.105263 400.426667 120.947368 400.426667 120.105263 C 402.346667 121.894737 410.453333 128.947368 415.786667 126.421053 C 417.813333 123.368421 411.946667 123.894737 405.546667 115.789474 C 410.133333 118.842105 421.333333 125.263158 426.56 122.842105 C 428.693333 120.421053 414.933333 112.947368 410.24 107.052632 L 398.186667 101.052632 L 381.973333 114.315789 L 394.346667 120.315789 Z M 394.24 120.315789 " transform="matrix(0.0366211,0,0,0.0371094,6.25,0)"/>
<path style="fill-rule:evenodd;fill:rgb(93.725491%,49.019608%,0%);fill-opacity:1;stroke-width:1;stroke-linecap:round;stroke-linejoin:round;stroke:rgb(0%,0%,0%);stroke-opacity:1;stroke-miterlimit:4;" d="M 375.893333 74.842105 C 375.893333 74.842105 381.44 71.578947 403.52 73.157895 C 405.866667 73.473684 418.453333 68.947368 422.613333 67.473684 C 429.013333 66.315789 449.6 61.894737 455.04 57.684211 C 458.986667 57.157895 453.973333 64.842105 448.96 66.736842 C 443.84 69.052632 424.853333 75.578947 418.133333 74.736842 C 426.24 74.842105 421.653333 81.368421 408.32 78.315789 C 414.72 81.894737 412.266667 82.526316 412.266667 82.526316 C 412.266667 82.526316 400.96 83.052632 397.973333 80.526316 C 405.546667 83.368421 402.346667 84.526316 402.346667 84.526316 C 402.346667 84.526316 394.666667 85.157895 391.146667 83.473684 C 396.586667 85.157895 393.813333 86.210526 393.813333 86.210526 C 393.813333 86.210526 389.333333 86.947368 385.6 85.578947 C 381.76 84.315789 376.213333 74.947368 375.893333 74.947368 Z M 375.893333 74.842105 " transform="matrix(0.0366211,0,0,0.0371094,6.25,0)"/>
<path style="fill-rule:evenodd;fill:rgb(93.725491%,49.019608%,0%);fill-opacity:1;stroke-width:1;stroke-linecap:butt;stroke-linejoin:round;stroke:rgb(0%,0%,0%);stroke-opacity:1;stroke-miterlimit:4;" d="M 384.746667 123.368421 L 385.493333 138 L 384.746667 139.157895 C 384.426667 139.578947 374.4 137.578947 375.68 145.157895 C 375.68 148.421053 375.68 149.157895 377.92 150.947368 C 377.386667 148.947368 377.493333 147.368421 377.493333 147.368421 C 377.493333 147.368421 380.373333 149.052632 383.146667 144.421053 C 381.226667 148.947368 382.506667 150.736842 383.04 150.842105 C 383.36 151.578947 382.186667 155.263158 386.026667 155.157895 C 384.533333 153.789474 385.173333 151.789474 385.173333 151.789474 C 385.173333 151.789474 389.226667 151.157895 387.84 144.105263 C 389.226667 142.736842 389.76 144.105263 389.76 144.105263 C 389.76 144.105263 390.186667 148.315789 393.706667 147.368421 C 395.2 148.315789 393.386667 150.631579 393.386667 150.631579 C 393.386667 150.631579 395.946667 150.631579 396.693333 148.631579 C 397.44 146.421053 398.293333 142.631579 394.24 141.052632 C 393.706667 139.473684 395.84 139.368421 395.84 139.368421 C 395.84 139.368421 398.4 140.315789 399.146667 141.578947 C 400 142.947368 399.68 138.210526 396.373333 137.578947 C 392.426667 137.578947 392.213333 136.736842 392.213333 136.631579 L 391.253333 122.947368 Z M 384.746667 123.368421 " transform="matrix(0.0366211,0,0,0.0371094,6.25,0)"/>
<path style="fill-rule:evenodd;fill:rgb(93.725491%,49.019608%,0%);fill-opacity:1;stroke-width:1.1;stroke-linecap:round;stroke-linejoin:round;stroke:rgb(0%,0%,0%);stroke-opacity:1;stroke-miterlimit:4;" d="M 398.613333 135.789474 C 398.613333 135.052632 391.786667 125.894737 393.6 124.842105 C 395.306667 125.052632 398.08 129.263158 400.533333 127.894737 C 399.786667 126.315789 397.653333 127.157895 395.413333 122.947368 C 392.96 118.210526 392.746667 111.052632 384.426667 103.368421 C 389.76 111.578947 401.813333 116.421053 402.346667 114 C 402.986667 111.578947 391.68 102.631579 392.32 100.421053 C 394.453333 104.842105 405.653333 114.842105 413.866667 114 C 414.506667 112 407.253333 108.210526 405.333333 104.631579 C 400 101.052632 385.92 88.947368 385.706667 86.105263 C 383.253333 81.894737 379.84 78.210526 375.786667 75.473684 L 375.04 73.789474 C 371.84 66.315789 376 63.789474 378.453333 63.473684 C 380.48 63.157895 381.12 63.473684 382.506667 62.842105 L 377.386667 60.842105 C 379.733333 62.526316 385.386667 61.052632 384.213333 65.789474 C 386.666667 64.842105 392.106667 58.421053 378.133333 57.052632 C 373.546667 51.789474 354.773333 48.842105 350.08 71.578947 C 350.506667 71.894737 350.72 72.210526 351.893333 73.052632 C 345.92 70.210526 330.026667 68 324.266667 66.947368 C 308.693333 62.631579 292.586667 51.789474 291.093333 53.052632 C 289.066667 54.105263 300.48 64.736842 299.946667 64.947368 C 290.986667 59.789474 281.813333 55.263158 272.426667 51.263158 C 266.346667 49.052632 260.48 43.894737 259.946667 44.947368 C 257.706667 49.368421 269.44 60.842105 271.573333 62.105263 C 273.813333 63.368421 290.88 71.368421 290.56 71.473684 C 264.746667 59.789474 260.586667 57.578947 259.2 56.315789 C 256.853333 55.789474 251.413333 48.315789 249.92 48.842105 C 248.96 49.578947 250.666667 61.368421 263.04 66.842105 C 264.96 68.210526 289.386667 76.947368 289.173333 77.578947 C 289.173333 77.789474 261.226667 66.105263 260.16 65.578947 C 254.826667 63.578947 248.213333 56.210526 247.04 57.052632 C 245.76 57.789474 250.026667 65.789474 255.36 68.315789 C 258.346667 69.473684 269.226667 74.947368 279.04 78.315789 C 279.573333 78.631579 261.333333 71.368421 252.48 67.789474 C 248.533333 65.578947 246.72 62.842105 246.08 63.368421 C 245.12 64 247.466667 75.789474 275.84 82.421053 C 276.48 82.842105 285.76 80.315789 285.333333 80.631579 C 280.106667 81.894737 274.773333 82.842105 269.546667 83.368421 C 269.226667 84.210526 271.253333 88.421053 285.866667 87.578947 C 287.68 87.473684 297.92 83.894737 296.96 84.631579 C 292.16 86.421053 287.253333 88.105263 282.24 89.473684 C 281.28 89.473684 276.586667 90.105263 276.373333 90.526316 C 276.16 91.263158 279.893333 94.315789 287.68 94.736842 C 294.72 95.052632 307.946667 90.526316 307.733333 90.842105 C 307.306667 91.052632 294.933333 95.368421 294.613333 95.578947 C 294.08 95.894737 289.6 96.105263 289.386667 96.526316 C 288.96 97.368421 296 103.894737 316.48 96.947368 C 314.453333 99.684211 304.533333 101.578947 304.533333 102.105263 C 304.533333 102.631579 306.666667 104.631579 310.186667 105.368421 C 311.893333 105.789474 314.346667 105.684211 316.48 105.368421 C 320.533333 104.631579 324.48 103.052632 329.813333 98.210526 C 330.453333 99.684211 316.693333 106.736842 317.333333 107.263158 C 320.32 110.105263 330.24 107.052632 330.773333 106.631579 C 331.52 106.315789 349.76 95.894737 349.76 94.631579 C 350.08 96.210526 326.08 109.263158 326.4 109.789474 C 327.893333 112.210526 336.106667 109.684211 336.426667 109.368421 L 347.2 103.578947 C 347.52 103.473684 335.36 110.631579 336.426667 111.789474 C 335.893333 116.526316 355.413333 108.631579 356.906667 107.578947 C 357.546667 107.052632 347.52 112 347.52 114.315789 C 350.826667 119.789474 361.173333 118.105263 362.773333 116.947368 C 363.626667 116.315789 361.813333 120.947368 362.453333 120.526316 C 363.626667 119.263158 364.693333 117.789474 365.44 116.210526 C 365.226667 117.789474 363.946667 120.210526 363.413333 122.947368 C 362.773333 125.789474 362.453333 128.947368 361.6 132.210526 C 361.386667 133.578947 368 129.263158 367.04 118.947368 C 367.573333 124.421053 365.013333 134.421053 365.653333 134.947368 C 367.04 136 370.88 130 371.306667 125.894737 C 372.373333 127.894737 374.826667 132.210526 376.853333 133.157895 C 376.746667 130.105263 376.853333 130.210526 375.893333 127.157895 C 376.426667 123.052632 376.746667 117.684211 376.746667 111.052632 C 382.293333 121.789474 384.64 126.421053 383.04 134.631579 C 384.746667 135.263158 387.306667 128.842105 387.093333 125.578947 C 388.266667 131.157895 392.96 135.263158 398.613333 135.789474 " transform="matrix(0.0366211,0,0,0.0371094,6.25,0)"/>
<path style="fill-rule:evenodd;fill:rgb(93.725491%,49.019608%,0%);fill-opacity:1;stroke-width:1.1;stroke-linecap:round;stroke-linejoin:round;stroke:rgb(0%,0%,0%);stroke-opacity:1;stroke-miterlimit:4;" d="M 305.386667 67.684211 C 305.386667 67.684211 301.546667 70.631579 296.746667 70.421053 C 298.026667 75.157895 307.84 71.473684 307.84 71.473684 C 307.84 71.473684 303.146667 76.842105 299.733333 77.578947 C 301.653333 79.263158 310.293333 78.736842 311.68 77.894737 C 313.066667 77.052632 315.733333 73.684211 315.733333 73.684211 C 315.733333 73.684211 306.88 83.894737 305.706667 83.789474 C 305.386667 84.947368 314.773333 84.631579 316.693333 82.842105 C 318.613333 80.947368 323.733333 78.421053 323.733333 78.421053 C 323.733333 78.421053 310.72 87.368421 310.186667 87.368421 C 314.986667 88.631579 324.693333 85.789474 330.88 82 C 321.706667 88.105263 320.853333 89.157895 316.16 91.263158 C 320.426667 92.210526 322.453333 94.947368 336.533333 88.947368 C 344.533333 85.052632 349.12 78.105263 349.12 78.105263 C 343.04 85.263158 335.68 91.368421 327.466667 96.105263 C 327.04 97.052632 336.853333 101.263158 349.44 88.210526 " transform="matrix(0.0366211,0,0,0.0371094,6.25,0)"/>
<path style="fill-rule:evenodd;fill:rgb(93.725491%,49.019608%,0%);fill-opacity:1;stroke-width:1.1;stroke-linecap:round;stroke-linejoin:miter;stroke:rgb(0%,0%,0%);stroke-opacity:1;stroke-miterlimit:4;" d="M 373.44 96 C 373.44 96 374.293333 100 377.706667 102.947368 C 381.12 106 381.333333 109.052632 381.333333 109.052632 M 371.84 70 C 371.84 70 372.906667 73.684211 376.426667 76 C 379.946667 78.210526 385.386667 85.368421 385.706667 86.736842 C 386.133333 88.210526 388.16 99.263158 388.053333 100.526316 M 350.186667 75.473684 C 350.4 77.052632 345.173333 83.789474 352.426667 91.894737 C 345.813333 99.894737 345.813333 100.947368 345.813333 100.947368 C 345.813333 100.947368 349.546667 102.947368 356.053333 97.263158 C 366.826667 110.526316 363.2 116.526316 363.2 116.526316 " transform="matrix(0.0366211,0,0,0.0371094,6.25,0)"/>
<path style="fill-rule:evenodd;fill:rgb(93.725491%,49.019608%,0%);fill-opacity:1;stroke-width:1.1;stroke-linecap:round;stroke-linejoin:round;stroke:rgb(0%,0%,0%);stroke-opacity:1;stroke-miterlimit:4;" d="M 362.346667 107.157895 C 362.346667 107.157895 361.28 105.789474 363.093333 100.526316 C 364.693333 102.526316 366.506667 102.842105 367.146667 103.473684 C 368 104.421053 376.213333 105.473684 376.64 110.947368 " transform="matrix(0.0366211,0,0,0.0371094,6.25,0)"/>
<path style="fill-rule:evenodd;fill:rgb(93.725491%,49.019608%,0%);fill-opacity:1;stroke-width:1.1;stroke-linecap:butt;stroke-linejoin:miter;stroke:rgb(0%,0%,0%);stroke-opacity:1;stroke-miterlimit:4;" d="M 371.946667 57.473684 C 371.946667 57.052632 370.24 53.473684 364.053333 57.894737 C 367.36 58.105263 370.56 60 371.946667 57.473684 Z M 371.946667 57.473684 " transform="matrix(0.0366211,0,0,0.0371094,6.25,0)"/>
<path style="fill-rule:evenodd;fill:rgb(93.725491%,49.019608%,0%);fill-opacity:1;stroke-width:1.1;stroke-linecap:butt;stroke-linejoin:round;stroke:rgb(0%,0%,0%);stroke-opacity:1;stroke-miterlimit:4;" d="M 430.08 73.473684 C 430.4 73.684211 448.32 77.473684 454.293333 75.578947 C 446.72 85.789474 431.36 78.947368 431.36 78.947368 C 438.933333 81.052632 439.253333 80.947368 441.6 83.052632 C 442.453333 85.052632 427.84 84.105263 423.146667 81.368421 C 436.373333 85.578947 436.693333 85.368421 437.12 86.947368 C 437.653333 89.157895 415.253333 86.315789 413.44 83.368421 C 419.413333 88 422.613333 88.947368 425.92 90.947368 C 421.866667 92.842105 414.4 94.631579 400.746667 84.947368 C 418.666667 101.263158 434.986667 100.315789 437.546667 103.157895 C 431.253333 112.526316 406.933333 97.684211 395.733333 90.210526 C 384.533333 82.736842 420.16 108.315789 423.466667 107.894737 C 421.866667 110.421053 410.133333 108.210526 409.28 106.947368 " transform="matrix(0.0366211,0,0,0.0371094,6.25,0)"/>
<path style="fill-rule:evenodd;fill:rgb(93.725491%,49.019608%,0%);fill-opacity:1;stroke-width:1.1;stroke-linecap:round;stroke-linejoin:miter;stroke:rgb(0%,0%,0%);stroke-opacity:1;stroke-miterlimit:4;" d="M 434.666667 90.736842 C 432.746667 90.947368 426.453333 90.947368 425.493333 90.842105 " transform="matrix(0.0366211,0,0,0.0371094,6.25,0)"/>
<path style="fill-rule:evenodd;fill:rgb(93.725491%,49.019608%,0%);fill-opacity:1;stroke-width:1.1;stroke-linecap:round;stroke-linejoin:round;stroke:rgb(0%,0%,0%);stroke-opacity:1;stroke-miterlimit:4;" d="M 300.053333 65.052632 C 300.053333 65.052632 313.706667 72.210526 319.466667 71.684211 C 318.4 72.631579 317.12 73.368421 315.733333 73.684211 C 317.12 74.315789 321.066667 76.421053 327.146667 75.052632 L 323.84 78.105263 C 323.84 78.105263 328.96 80.105263 334.826667 77.052632 L 331.946667 80.842105 L 336.106667 81.052632 " transform="matrix(0.0366211,0,0,0.0371094,6.25,0)"/>
</g>
</svg>

<svg xmlns="http://www.w3.org/2000/svg" id="flag-icons-zm" viewBox="0 0 640 480">
  <defs>
    <clipPath id="zm-a">
      <path fill-opacity=".7" d="M-170.7 0H512v512h-682.7z"/>
    </clipPath>
  </defs>
  <g fill-rule="evenodd" clip-path="url(#zm-a)" transform="translate(160)scale(.9375)">
    <path fill="#198a00" d="M-256 0h768v512h-768z"/>
    <path fill="#ef7d00" d="M421.9 184H512v328h-90.1z"/>
    <path fill="#000001" d="M331.9 183.8h90v328h-90z"/>
    <path fill="#de2010" d="M240 184h91.9v328h-92z"/>
    <g fill="#ef7d00" stroke="#000">
      <path stroke-linejoin="round" d="M451.6 65.6s34-14.5 37.2-17.5c1.5 1.8-13.6 20-42.9 26.7 26.6-6.2 49.3-26 54-25.4 1.3.3 1 19.3-60 35.8 42.2-11 66.7-31.4 66.4-29.2.3.5-4.2 16-41.1 28.1 10.3-2.4 38.3-19.4 38-16.1.9 1.3-27 37.2-77.6 25.5 40.4 10.5 66.5-14.8 70.2-14.3.8.1-7.4 22-58.2 23.4 24.3-2.5 17.3-.1 17.3-.1s-14.3 11.2-31.7 3.6c13.6 3.7 15.1 3.9 15.4 5-.9 1.6-12 3.8-22.9-2 8.7 3.6 16.5 4.2 16.6 5.5-.1.4-5.6 3.6-10.6 1.3s-50.3-30.1-50.3-30.1l77.4-21.3 2.8 1zm-91 75.6c-6.8 0-7 6-7 6s-.5.5-.2 3.4l1.7-2.6c.8.1 3.9 1 8.8-2.8-4.5 4.7-1.8 6.4-1.8 6.4s-1 3.7 2.4 4.4c-1-1.5-.4-2.8-.4-2.8s4.8-.5 4.5-6.3c.1 5.3 3 6.6 3 6.6s0 2.9 3.1 3.2c-1.6-1.5-1.3-3.8-1.3-3.8s4-3 .7-8c2-1.2 3.7-4.5 3.7-4.5s-2.8-1.2-4.1-2.2c-.6-1.3 0-8.5 0-8.5l-1.8-9.3-4.8 14.5c.2-2 .3 6.3-6.5 6.3z"/>
      <path stroke-linejoin="round" d="M394.2 120.3c.2.1 5.1 5.6 9.9 5.3 1.8-1.5-3.7-4.7-3.7-5.5 2 1.8 10.1 8.8 15.4 6.3 2-3-3.8-2.5-10.2-10.6 4.5 3 15.7 9.5 21 7 2.1-2.4-11.7-9.9-16.4-15.7l-12-6.1-16.2 13.3 12.3 6z"/>
      <path stroke-linecap="round" stroke-linejoin="round" d="M375.9 74.8s5.5-3.2 27.6-1.6c2.4.3 15-4.3 19.1-5.7 6.4-1.2 27-5.6 32.4-9.8 4-.5-1 7.1-6 9-5.2 2.3-24.1 8.9-30.9 8 8.1.1 3.6 6.7-9.8 3.6 6.4 3.6 4 4.2 4 4.2s-11.3.6-14.3-2c7.6 2.9 4.4 4 4.4 4s-7.7.7-11.3-1c5.5 1.7 2.7 2.7 2.7 2.7s-4.5.8-8.2-.6c-3.8-1.3-9.4-10.7-9.7-10.7z"/>
      <path stroke-linejoin="round" d="m384.7 123.4.8 14.6-.8 1.2c-.3.4-10.3-1.6-9 6 0 3.2 0 4 2.2 5.7-.5-2-.4-3.5-.4-3.5s2.9 1.7 5.6-3c-1.9 4.6-.6 6.3-.1 6.4.4.8-.8 4.5 3 4.4-1.5-1.4-.8-3.4-.8-3.4s4-.6 2.6-7.7c1.4-1.4 2 0 2 0s.4 4.2 3.9 3.3c1.5.9-.3 3.2-.3 3.2s2.5 0 3.3-2c.7-2.2 1.6-6-2.5-7.6-.5-1.5 1.6-1.6 1.6-1.6s2.6.9 3.4 2.2.5-3.4-2.8-4c-4 0-4.2-.9-4.2-1l-1-13.7z"/>
      <path stroke-linecap="round" stroke-linejoin="round" stroke-width="1.1" d="M398.6 135.8c0-.7-6.8-9.9-5-11 1.7.3 4.5 4.5 6.9 3.1-.7-1.6-2.8-.7-5.1-4.9-2.4-4.8-2.7-11.9-11-19.6 5.4 8.2 17.4 13 18 10.6s-10.7-11.4-10.1-13.6c2.2 4.4 13.4 14.4 21.6 13.6.6-2-6.7-5.8-8.6-9.4-5.3-3.6-19.4-15.7-19.6-18.5a33 33 0 0 0-9.9-10.6l-.8-1.7c-3.2-7.5 1-10 3.5-10.3 2-.3 2.6 0 4-.7l-5.1-2c2.3 1.7 8 .2 6.8 5 2.5-1 7.9-7.4-6.1-8.8-4.6-5.2-23.3-8.2-28 14.6.4.3.6.6 1.8 1.4-6-2.8-21.9-5-27.6-6-15.6-4.4-31.7-15.2-33.2-13.9-2 1 9.4 11.6 8.8 11.8a263 263 0 0 0-27.5-13.6c-6-2.2-11.9-7.4-12.5-6.4-2.2 4.5 9.5 15.9 11.7 17.2s19.3 9.3 19 9.4c-25.8-11.7-30-13.9-31.4-15.2-2.3-.5-7.8-8-9.3-7.5-.9.8.8 12.6 13.1 18 2 1.4 26.4 10.1 26.2 10.8 0 .2-28-11.5-29-12-5.4-2-12-9.4-13.2-8.6s3 8.8 8.4 11.3c2.9 1.2 13.8 6.6 23.6 10 .6.3-17.7-6.9-26.5-10.5-4-2.2-5.8-5-6.4-4.4-1 .6 1.4 12.4 29.7 19 .7.4 10-2.1 9.5-1.8a113 113 0 0 1-15.8 2.8c-.3.8 1.8 5 16.4 4.2 1.8-.1 12-3.7 11.1-3a174 174 0 0 1-14.8 4.9c-.9 0-5.6.6-5.8 1-.2.8 3.5 3.8 11.3 4.2 7 .4 20.2-4.2 20-3.9-.4.3-12.8 4.6-13.1 4.8-.5.3-5 .5-5.2.9-.4.9 6.6 7.4 27.1.4-2 2.8-12 4.7-12 5.2s2.2 2.5 5.7 3.3c1.7.4 4.1.3 6.3 0 4-.8 8-2.3 13.3-7.2.6 1.5-13.1 8.5-12.5 9.1 3 2.8 12.9-.3 13.5-.7.7-.3 19-10.7 19-12 .3 1.6-23.7 14.7-23.4 15.2 1.5 2.4 9.7-.1 10-.4l10.8-5.8c.3-.1-11.8 7-10.8 8.2-.5 4.7 19-3.2 20.5-4.2.7-.5-9.4 4.4-9.4 6.7 3.3 5.5 13.7 3.8 15.3 2.6.8-.6-1 4-.4 3.6a16 16 0 0 0 3-4.3c-.2 1.6-1.4 4-2 6.8s-.9 5.9-1.8 9.2c-.2 1.4 6.4-2.9 5.4-13.2.6 5.4-2 15.4-1.3 16 1.3 1 5.2-5 5.6-9.1 1.1 2 3.5 6.3 5.6 7.3-.2-3.1 0-3-1-6q.8-6.3.8-16.1c5.6 10.7 7.9 15.3 6.3 23.5 1.7.7 4.3-5.8 4.1-9a13 13 0 0 0 11.5 10.2"/>
      <path stroke-linecap="round" stroke-linejoin="round" stroke-width="1.1" d="M305.4 67.7s-3.9 2.9-8.6 2.7c1.2 4.8 11 1.1 11 1.1s-4.7 5.3-8.1 6.1c2 1.7 10.6 1.1 12 .3s4-4.2 4-4.2-8.8 10.2-10 10.1c-.3 1.2 9.1.8 11-1s7-4.4 7-4.4-13 9-13.5 9c4.8 1.2 14.5-1.6 20.7-5.4-9.2 6.1-10 7.2-14.7 9.3 4.2.9 6.3 3.7 20.3-2.4 8-3.8 12.6-10.8 12.6-10.8a82 82 0 0 1-21.6 18c-.5 1 9.4 5.2 21.9-7.9"/>
      <path stroke-linecap="round" stroke-width="1.1" d="M373.4 96s.9 4 4.3 7 3.6 6 3.6 6m-9.5-39s1.1 3.7 4.6 6c3.6 2.2 9 9.4 9.3 10.7.4 1.5 2.5 12.6 2.3 13.8m-37.8-25c.2 1.5-5 8.3 2.2 16.4-6.6 8-6.6 9-6.6 9s3.7 2 10.2-3.6c10.8 13.2 7.2 19.2 7.2 19.2"/>
      <path stroke-linecap="round" stroke-linejoin="round" stroke-width="1.1" d="M362.3 107.2s-1-1.4.8-6.7c1.6 2 3.4 2.3 4.1 3 .8.9 9 2 9.4 7.5"/>
      <path stroke-width="1.1" d="M371.9 57.5c0-.4-1.7-4-7.8.4 3.3.2 6.5 2.1 7.8-.4z"/>
      <path stroke-linejoin="round" stroke-width="1.1" d="M430.1 73.5c.3.2 18.2 4 24.2 2.1-7.6 10.2-22.9 3.3-22.9 3.3 7.5 2.2 7.8 2 10.2 4.2.8 2-13.8 1-18.5-1.7 13.3 4.2 13.6 4 14 5.5.6 2.3-21.8-.6-23.7-3.5 6 4.6 9.2 5.5 12.5 7.6-4 1.8-11.5 3.6-25.2-6.1 18 16.4 34.3 15.4 36.9 18.3-6.3 9.3-30.7-5.5-41.9-13s24.5 18.1 27.8 17.7c-1.6 2.5-13.4.3-14.2-1"/>
      <path stroke-linecap="round" stroke-width="1.1" d="M434.7 90.7c-2 .3-8.3.3-9.2.1"/>
      <path stroke-linecap="round" stroke-linejoin="round" stroke-width="1.1" d="M300.1 65s13.6 7.2 19.4 6.7a10 10 0 0 1-3.8 2c1.4.6 5.4 2.7 11.4 1.4l-3.3 3s5.2 2 11-1l-2.8 3.7 4.1.3"/>
    </g>
  </g>
</svg>
